X:1
T:Valses poéticos
T:Allegro humoristico
T:Valses poéticos
T:No. 4
T:Enrique Granados
T:OpenScore (CC0)
C:Enrique Granados
Z:OpenScore (CC0)
%%score { ( 1 3 ) | 2 }
L:1/8
Q:1/4=200
M:3/4
K:Bb
V:1 treble nm="Piano" snm="Pno."
V:3 treble 
V:2 bass 
V:1
!ff!"_ritmico""^Allegro humoristico" [Fd]f f2 [Fd]2 | [Fc]f f2 [Fc]2 |{/c} (BABdcB | %3
 [FA][CG] [A,F]4) | [Bg]b b2 [Bg]2 | [Bf]b b2 [Bf]2 |{/f} ((edegfe | [Bd][Fc] [DB]4)) | %8
 [Fd]f f2!ff! [Fd]2 | [Fc]f f2 [Fc]2 |{/c} (BABdcB | [FA][CG] [A,F]4) | [Bg]b b2 [Bg]2 | %13
 [Bf]b b2 [Bf]2 |{/f} (edegfe | [Bd][Fc])"^iz." [DB]4 | d3 ^c=e=A | (a4 g2) | g3 ^fad | (d'4 c'2) | %20
{/c'} .b.a.b.d'.c'.b | .a.g"_dim.".^f.e.d.c | .B.A.G.^F.G.A | .^F.=E.D z z2 | d3 ^c=e=A | (a4 g2) | %26
 g3 ^fad | (d'4 c'2) |{/c'} .b.a.b.d'.c'.b | .a.g.^f.e.d.c | .B"_dim. e rall.".A.G.^F.G.D | %31
[I:staff +1] .B,.A, .G,[I:staff -1] z z2 |] %32
V:2
 [B,,,B,,]2 z2 [B,,,B,,]2 | [A,,,A,,]2 z2 [A,,,A,,]2 | G,,2 G,2 C,2 | [C,F,A,]2 F,,4 | %4
 [E,,E,]2 z2 [E,,E,]2 | [D,,D,]2 z2 [D,,D,]2 | C,,2 C,2 F,,2 | B,,,2 [B,,F,]4 | %8
 [B,,,B,,]2 z2 [B,,,B,,]2 | [A,,,A,,]2 z2 [A,,,A,,]2 | G,,2 G,2 C,2 | [C,F,A,]2 F,,4 | %12
 [E,,E,]2 z2 [E,,E,]2 | [D,,D,]2 z2 [D,,D,]2 | C,,2 C,2 F,,2 | B,,,2[I:staff -1] b4 | %16
[I:staff +1][K:treble] z (=A,=EG) z2 | (^CGA=e) z2 | z (DAc) z2 | (^Fcda) z2 |{/d} g2 G4 | %21
 [CEGA]4 z2 | (GD B,2 ^C2) | D3[K:bass] .A, .D,2 |[K:treble] z (=A,=EG) z2 | (^CGA=e) z2 | %26
 z (DAc) z2 | (^Fcda) z2 |{/d} g2 G4 | [CEGA]4 z2 | .G.D B,2[K:bass] D2 | z2 z .D, .G,,2 |] %32
V:3
 x6 | x6 | D4 E2 | x6 | x6 | x6 | G4 A2 | x6 | x6 | x6 | D4 E2 | x6 | x6 | x6 | G4 A2 | x6 | x6 | %17
 x6 | x6 | x6 | x6 | x6 | x6 | x6 | x6 | x6 | x6 | x6 | x6 | x6 | x6 | x6 |] %32

